X: 4
P: Sl\"angpolska efter Byss-Calle
D: JPP "String Tease" Northside
M: 3/4
L: 1/16
K: G
|: "G"d3B  G2G2 BABd | "D7"A2AB "G"G2G2 BABd | "C"cBce "G"d2Bd "Am"cBAG \
|1,3 "D7"FGAB AGFE D4 :|2,4 "D7"FGAB A2BA "G"G4 :|
|: "G"d2d2 "D7"d2ef "G"g4   | "G"g2fe "D7"d2ef "G"g2B2 | "C"cBce "G"d2Bd "Am"cBAG \
|1,3 "D7"FGAB AGFE D4 :|2,4 "D7"FGAB A2BA "G"G4 :|
